X:1
T:Gamle Norig
T:Gamle Norig
T:David Monrad Johansen
T:Ivar Aasen
T:Norsk Musikkforlag 1926
T:Norsk Musikkforlag 1926
T:Norsk Musikkforlag 1926
T:Norsk Musikkforlag 1926
T:Norsk Musikkforlag 1926
C:David Monrad Johansen
Z:Ivar Aasen
Z:Norsk Musikkforlag 1926
%%score [ 1 2 3 4 ]
L:1/8
Q:1/4=80
M:3/4
K:Ab
V:1 treble-8 nm="Tenor 1" snm="T1."
V:2 treble-8 nm="Tenor 2" snm="T2."
V:3 bass nm="Baryton" snm="Bar."
V:4 bass nm="Bass" snm="B."
V:1
 fc | e2 e2 fc | e2 e2 =ec |!<(! ff gg f2-!<)! | f3 z fc | e2 e2 fc | e2 e2 =ec | %7
w: |||||||
!<(! ff gg f2-!<)! | f3 z!p!"^poco meno mosso" cc | c2 cc cc | c2 c2!>(! =dd!>)! | e2 ee =dd | %12
w: |||||
 c4 cc/c/ | c2 c2 cc | c2 c2!>(! =dd/d/!>)! | e2 e2 =dd | c6 |[M:4/4] z2 f(=e/=d/) c4 | %18
w: |||||Leid er * vel|
[M:3/4] z d cc =d=e | z f2 f =d=e | z d2 c c2 |[M:4/4] z2 f(=e/=d/) c4 |[M:3/4] z d cc =d=e | %23
w: den lan- ge vet- ter|en- då grøn vår|gran- skog stend,|og når * lauv|i li- dom spret- ter,|
 z f2 f =d=e | z d2 c c2 | z2 gg =eg | f=d =eg ee | z2 gg =eg | f=d =eg e2 | %29
w: fag- re li- ter|fær vår grend.|Sto- re da- *|gar og stut- te næt- ter|li- da lett *|um den ljo- se jord;|
[M:4/4] z2 f(=e/=d/) c4 |[M:3/4] z d cc =d=e | z f2 f/f/ =d=e | z"^rit." d2 c c2 ||"^Tempo I" fc | %34
w: strand og * fjord|og fjell og sæ- ter|ski- ner av sol frå|sud og nord.||
 e2 e2 fc | e2 e2 =ec |!<(! ff gg f2-!<)! | f3 z fc | e2 e2 fc | e2 e2 =ec |!<(! ff gg f2-!<)! | %41
w: |||||||
 f3 z!p! cc | c2 c2 cc/c/ | c2 c2!>(! =dd!>)! | e2 ee =dd | c4 cc | c2 cc cc | c2 c2!>(! =dd!>)! | %48
w: |||||||
 e2 e"^rit."e =dd |!pp! c4 z2 | z4!<(! (F/G/)(A/B/)!<)! | c2 c2!ff!"^ben ten." =ec | ff gg f2- | %53
w: |||||
 f3 z z2 | z4!<(! (F/G/)(A/B/)!<)! | c2 c2"^rit." (c/d/)(e/f/) | dB !fermata!d3 c | %57
w: ||||
!ff!!>(! c6-!>)! |!p! !fermata!c4 |] %59
w: ||
V:2
!f! dc | B2 B2 dc | B2 B2 cc | cc ee c2- | c3 z dc | B2 B2 dc | B2 B2 cc | cc ee c2- | c3 z AA | %9
w: Gam- le|No- rig, nørdst i|gren- dom, er vårt|ei- get æt- tar- land.|* Der er|hav, som heilt åt|en- dom lei- kar|um den lan- ge strand.|* Der er|
 A2 AA AA | G2 G2 BB | B2 BB BB | G4 AA/A/ | A2 A2 AA | G2 G2 BB/B/ | B2 B2 BB | G6 | %17
w: vi- kar og votn og|øy- ar, tu- sund|fjor- dar og tu- sund|fjell, snøy- or der|sjel- dan snjo- en|tøy- ar, da- lar, der|fos- sen di- ger|fell.|
[M:4/4] z2 c(B/A/) G4 |[M:3/4] z B AA Bc | z d2 c BB | z B2 A A2 |[M:4/4] z2 c(B/A/) G4 | %22
w: |||||
[M:3/4] z B AA Bc | z d2 c BB | z B2 A A2 | z2 dd c2 | cc cc cc | z2 dd c2 | cc cc c2 | %29
w: |||||||
[M:4/4] z2 c(B/A/) G4 |[M:3/4] z B AA Bc | z d2 c/c/ BB |!>(! z B2 A!f! A2!>)! || dc | B2 B2 dc | %35
w: ||||Born av|deim som byg- de|
 B2 B2 cc | cc ee c2- | c3 z dc | B2 B2 dc | B2 B2 cc | cc ee c2- | c3 z AA | A2 A2 AA/A/ | %43
w: lan- det er på|tuf- tom en- då til;|* gar- den|stend i sa- me|stan- det bygd og|bødt som bon- den vil.|* Van til|mø- da meir enn til|
 G2 G2 BB | B2 BB BB | G4 AA | A2 AA AA | G2 G2 BB | B2 BB BB | G4 z2 | z4!f! (F/G/)(A/B/) | %51
w: kjæ- la, lei- kar|ly- den på land og|sjo. Giv han|sit- je med sømd og|sæ- la trutt på|tuf- tom i trygd og|ro.|nørdst * i *|
 c2 c2 cc | cc ee c2- | c3 z z2 | z4!f! (F/G/)(A/B/) | c2 c2 (A/B/)(c/d/) | BG G3 G | (G6 | A4) |] %59
w: gren- dom, er vårt|ei- ge æt- tar- land.||nørdst * i *|gren- dom, er * vårt *|ei- ge æt- tar-|land.||
V:3
 A,A, | G,2 G,2 A,A, | G,2 G,2 G,G, | A,A, B,B, A,2- | A,3 z A,A, | G,2 G,2 A,A, | G,2 G,2 G,G, | %7
w: |||||||
 A,A, B,B, A,2- | A,3 z F,F, | F,2 F,F, F,F, | =E,2 E,2 F,F, | G,2 G,G, F,F, | E,4 F,F,/F,/ | %13
w: ||||||
 F,2 F,2 F,F, | =E,2 E,2 F,F,/F,/ | G,2 G,2 F,F, | E,6 | %17
w: ||||
[M:4/4]"^espress." A,3 (G,/F,/) =E,(C,/=D,/) E,C, |[M:3/4] F,2 F,2 G,G, | A,2 A,2 G,G, | F,6 | %21
w: Leid er * vel den * lan- ge|vet- ter, en- då|grøn vår gran- skog|stend.|
[M:4/4] A,3 (G,/F,/) =E,(C,/=D,/) E,C, |[M:3/4] F,2 F,2 G,G, | A,2 A,2 G,G, | F,6 | CC B,2 G,B, | %26
w: og når * lauv i * li- dom|spret- ter, fag- re|li- ter fær vår|grend.|Sto- re da- gar og|
 A,A, G,2 G,2 | CC B,2 G,B, | A,A, G,4 |[M:4/4] A,3 (G,/F,/) =E,(C,/=D,/) E,C, | %30
w: stut- te net- ter|li- da lett um den|ljo- se jord;|strand og * fjord og * fjell og|
[M:3/4] F,2 F,2 G,G,/G,/ | A,2 A,2 G,G, | F,6 || A,A, | G,2 G,2 A,A, | G,2 G,2 G,G, | %36
w: sæ- ter ski- ner av|sol frå sud og|nord.||||
 A,A, B,B, A,2- | A,3 z A,A, | G,2 G,2 A,A, | G,2 G,2 G,G, | A,A, B,B, A,2- | A,3 z F,F, | %42
w: ||||||
 F,2 F,2 F,F,/F,/ | =E,2 E,2 F,F, | G,2 G,G, F,F, | E,4 F,F, | F,2 F,F, F,F, | =E,2 E,2 F,F, | %48
w: ||||||
 G,2 G,G, F,F, | E,4!mf!!<(! z2!<)! | z4 (D,/E,/)(F,/G,/) | A,2 A,2 G,G, | A,A, B,B, A,2- | %53
w: |||||
 A,3 z!mf!!<(! z2!<)! | z4 (D,/E,/)(F,/G,/) | A,2 A,2 !>!F,!>!F, | !>!F,!>!F, F,3 =E, | (=E,6 | %58
w: |||||
 F,4) |] %59
w: |
V:4
 D,F, | E,2 E,2 D,F, | E,2 E,2 C,=E, | F,F, E,E, F,2- | F,3 z D,F, | E,2 E,2 D,F, | E,2 E,2 C,=E, | %7
w: |||||||
 F,F, E,E, F,2- | F,3 z F,F, | E,2 E,E, =D,D, | C,2 C,2 B,,B,, | E,2 E,E, B,,B,, | C,4 F,F,/F,/ | %13
w: ||||||
 E,2 E,2 =D,D, | C,2 C,2 B,,B,,/B,,/ | E,2 E,2 B,,B,, | C,6 |[M:4/4] z2 (A,,/B,,/)C, C,4 | %18
w: ||||Leid * er vel|
[M:3/4] z B,, [F,,C,][F,,C,] [F,,C,][F,,C,] | z D,2 (A,,/B,,/) C,C, | z B,,2 [F,,C,] [F,,C,]2 | %21
w: den lan- ge vet- ter|en- då * grøn vår|gran- skog stend,|
[M:4/4] z2 (A,,/B,,/)C, C,4 |[M:3/4] z B,, [F,,C,][F,,C,] [F,,C,][F,,C,] | z D,2 (A,,/B,,/) C,C, | %24
w: og * når lauv|i li- dom spret- ter,|fag- re * li- ter|
 z B,,2 [F,,C,] [F,,C,]2 | z2 F,=E, G,E, | C,F, G,=E, C,C, | z2 F,=E, G,E, | C,F, G,=E, C,2 | %29
w: fær vår grend.|Sto- re da- *|gar og stut- te næt- ter|li- da lett *|um den ljo- se jord;|
[M:4/4] z2 (A,,/B,,/)C, C,4 |[M:3/4] z B,, [F,,C,][F,,C,] [F,,C,][F,,C,] | z D,2 A,,/B,,/ C,C, | %32
w: strand * og fjord|og fjell og sæ- ter|ski- ner av sol frå|
 z B,,2 [F,,C,] [F,,C,]2 || D,F, | E,2 E,2 D,F, | E,2 E,2 C,=E, | F,F, E,E, F,2- | F,3 z D,F, | %38
w: sud og nord.||||||
 E,2 E,2 D,F, | E,2 E,2 C,=E, | F,F, E,E, F,2- | F,3 z F,F, | E,2 E,2 =D,D,/D,/ | C,2 C,2 B,,B,, | %44
w: ||||||
 E,2 E,E, B,,B,, | C,4 F,F, | E,2 E,E, =D,D, | C,2 C,2 B,,B,, | E,2 E,E, B,,B,, | %49
w: |||||
 C,4 (F,,/G,,/)(A,,/B,,/) | C,2 C,2 (D,/E,/)(F,/G,/) | A,2 A,2 G,=E, | F,F, E,E, F,2- | %53
w: * Gam- * le *|No- rig, * * * *|||
 F,3 z (F,,/G,,/)(A,,/B,,/) | C,2 C,2 (D,/E,/)(F,/G,/) | A,2 A,2 !>!F,!>!F, | %56
w: * Gam- * le *|No- rig, * * * *||
 !>!F,!>!F, !fermata!B,,3 C, | (C,6- | !fermata![F,,C,]4) |] %59
w: |||

